X:505
T:Highland Skip 1
T:Parnell's Reel
T:Boyne Hunt, The
N:Originally 'The Perthshire Hunt'
B:Cole's 1000 Fiddle Tunes
Z:Nigel Gatherer
M:4/4
L:1/8
K:D
A2FA DAFA | A2FA BEEB | A2FA DAFA | ABde fedB  |
A2FA DAFA | A2FA BEEB | A2FA DAFA | ABde fdd2 ||
Adfd adfd | Adfd gee2 | Adfd adfd | ABde fdd2  |
Adfd adfd | Adfd gee2 | fgfe dedB | ABde fdd2  |
<end>
<start>
